assets/images/logo.svg

<svg width="119" height="24" viewBox="0 0 119 24" fill="none" xmlns="http://www.w3.org/2000/svg">
<path d="M26 5.39149H28.7957V14.0153C28.7957 14.626 29.0077 15.145 29.4317 15.5725C29.8557 16 30.3636 16.2137 30.9554 16.2137H35.8181V5.39149H38.6138V16.2007C38.6138 16.9597 38.3399 17.6096 37.7923 18.1505C37.2446 18.6827 36.5777 18.9487 35.7916 18.9487H30.9554C30.0456 18.9487 29.2153 18.7306 28.4645 18.2944C27.7136 17.8495 27.113 17.2563 26.6625 16.5147C26.2208 15.7732 26 14.9531 26 14.0545V5.39149Z" fill="#222222"/>
<path d="M41.6612 10.2595C41.6612 9.36096 41.882 8.54526 42.3237 7.81243C42.7742 7.07961 43.3748 6.49509 44.1257 6.05889C44.8765 5.61396 45.7068 5.39149 46.6166 5.39149H54.275V18.9487H51.4793V8.15267H46.6166C46.0248 8.15267 45.5169 8.36205 45.0929 8.78081C44.6689 9.19084 44.4569 9.69248 44.4569 10.2857V14.0284C44.4569 14.6216 44.6689 15.132 45.0929 15.5594C45.5169 15.9782 46.0248 16.1876 46.6166 16.1876H49.8893V18.9487H46.6166C45.7068 18.9487 44.8765 18.7306 44.1257 18.2944C43.3748 17.8495 42.7742 17.2563 42.3237 16.5147C41.882 15.7732 41.6612 14.9531 41.6612 14.0545V10.2595Z" fill="#222222"/>
<path d="M57.4549 8.19193C57.4549 7.41549 57.742 6.75682 58.3161 6.21592C58.8903 5.6663 59.5793 5.39149 60.3831 5.39149H66.107C66.8401 5.39149 67.5026 5.57034 68.0945 5.92803C68.6951 6.27699 69.1721 6.75245 69.5254 7.35442C69.8876 7.94766 70.0687 8.60633 70.0687 9.33043V9.70992C70.0687 10.4253 69.8876 11.0796 69.5254 11.6728C69.1721 12.2574 68.6951 12.7285 68.0945 13.0862C67.5026 13.4351 66.8401 13.6096 66.107 13.6096H61.8406V10.8615H66.1335C66.4515 10.8615 66.7209 10.7481 66.9417 10.5213C67.1714 10.2944 67.2862 10.0196 67.2862 9.69684V9.33043C67.2862 8.99891 67.1714 8.71974 66.9417 8.49291C66.7209 8.26609 66.4515 8.15267 66.1335 8.15267H60.2506V15.1145C60.2506 15.4111 60.3522 15.6641 60.5553 15.8735C60.7585 16.0829 61.0058 16.1876 61.2973 16.1876H69.1014V18.9487H61.2973C60.5907 18.9487 59.9459 18.7786 59.3629 18.4384C58.7799 18.0894 58.3161 17.627 57.9716 17.0513C57.6272 16.4667 57.4549 15.8255 57.4549 15.1276V8.19193Z" fill="#222222"/>
<path d="M73.0499 17.3784C73.0499 16.9073 73.2177 16.506 73.5534 16.1745C73.889 15.843 74.2953 15.6772 74.7723 15.6772C75.2582 15.6772 75.6645 15.843 75.9913 16.1745C76.327 16.4973 76.4948 16.8986 76.4948 17.3784C76.4948 17.8582 76.327 18.2639 75.9913 18.5954C75.6645 18.9182 75.2582 19.0796 74.7723 19.0796C74.2953 19.0796 73.889 18.9139 73.5534 18.5823C73.2177 18.2508 73.0499 17.8495 73.0499 17.3784Z" fill="#222222"/>
<path d="M79.476 10.2595C79.476 9.36096 79.6968 8.54526 80.1385 7.81243C80.589 7.07961 81.1896 6.49509 81.9404 6.05889C82.6913 5.61396 83.5216 5.39149 84.4314 5.39149H89.2941C90.0625 5.39149 90.7206 5.66194 91.2683 6.20284C91.8159 6.74373 92.0898 7.39368 92.0898 8.15267V19.1058C92.0898 20.0044 91.8645 20.8244 91.414 21.566C90.9724 22.3075 90.3761 22.8964 89.6253 23.3326C88.8745 23.7775 88.0442 24 87.1343 24H80.3637V21.2388H87.0946C87.7041 21.2388 88.2208 21.0294 88.6448 20.6107C89.0776 20.2007 89.2941 19.7034 89.2941 19.1189V8.15267H84.4314C83.8396 8.15267 83.3317 8.36205 82.9077 8.78081C82.4837 9.19084 82.2717 9.69248 82.2717 10.2857V14.0414C82.2717 14.626 82.4837 15.132 82.9077 15.5594C83.3317 15.9782 83.8396 16.1876 84.4314 16.1876H87.7041V18.9487H84.4314C83.5216 18.9487 82.6913 18.7306 81.9404 18.2944C81.1896 17.8495 80.589 17.2606 80.1385 16.5278C79.6968 15.7863 79.476 14.9662 79.476 14.0676V10.2595Z" fill="#222222"/>
<path d="M94.9517 1.7012C94.9517 1.2301 95.1195 0.82879 95.4552 0.497274C95.7909 0.165758 96.1972 0 96.6742 0C97.1512 0 97.5575 0.165758 97.8931 0.497274C98.2288 0.82879 98.3966 1.2301 98.3966 1.7012C98.3966 2.1723 98.2288 2.57361 97.8931 2.90513C97.5575 3.23664 97.1512 3.4024 96.6742 3.4024C96.1972 3.4024 95.7909 3.23664 95.4552 2.90513C95.1195 2.57361 94.9517 2.1723 94.9517 1.7012ZM95.2697 5.39149H98.0786V18.9487H95.2697V5.39149Z" fill="#222222"/>
<path d="M101.259 4.22683C101.259 3.51145 101.435 2.8615 101.789 2.27699C102.151 1.68375 102.628 1.21265 103.22 0.863686C103.82 0.514722 104.483 0.34024 105.207 0.34024H108.268V3.08833H105.207C104.889 3.08833 104.615 3.20174 104.386 3.42857C104.165 3.64667 104.054 3.91276 104.054 4.22683V5.39149H108.321V8.13959H104.054V18.9487H101.259V4.22683Z" fill="#222222"/>
<path d="M110.189 5.39149H111.978V0.34024H114.773V5.39149H119V8.15267H114.773V15.1014C114.773 15.398 114.888 15.6554 115.118 15.8735C115.356 16.0829 115.639 16.1876 115.966 16.1876H119V18.9487H115.926C115.202 18.9487 114.539 18.7786 113.939 18.4384C113.347 18.0894 112.87 17.627 112.508 17.0513C112.154 16.4667 111.978 15.8212 111.978 15.1145V8.15267H110.189V5.39149Z" fill="#222222"/>
<path d="M7.02274 6.73519C8.37829 7.06865 9.32925 8.26713 9.32925 9.64204V11.1H7.8476C6.45033 11.1 5.23237 10.1642 4.89348 8.83038C4.572 7.56501 5.7368 6.41885 7.02274 6.73519Z" fill="#497FFF"/>
<path d="M11.1586 9.64204V11.1H12.6402C14.0375 11.1 15.2554 10.1642 15.5943 8.83038C15.9158 7.56501 14.751 6.41885 13.4651 6.73519C12.1095 7.06865 11.1586 8.26713 11.1586 9.64204Z" fill="#497FFF"/>
<path fill-rule="evenodd" clip-rule="evenodd" d="M11.1586 23.9347V14.5484C12.1094 16.4172 14.0732 17.7001 16.3416 17.7001C16.8468 17.7001 17.2563 17.2972 17.2563 16.8001C17.2563 16.303 16.8468 15.9001 16.3416 15.9001C14.4674 15.9001 12.8971 14.6201 12.4842 12.9H20V14.16C20 19.2089 16.1356 23.3697 11.1586 23.9347Z" fill="#497FFF"/>
<path d="M11.1586 1.68075e-10V5.89636C11.6932 5.47518 12.3238 5.16049 13.0214 4.98889C15.6471 4.34297 18.0254 6.68327 17.369 9.26695C17.1946 9.95335 16.8748 10.5739 16.4468 11.1H20V0L11.1586 1.68075e-10Z" fill="#497FFF"/>
<path fill-rule="evenodd" clip-rule="evenodd" d="M20 14.16V12.9H12.4842C12.8971 14.6201 14.4674 15.9001 16.3416 15.9001C16.8468 15.9001 17.2563 16.303 17.2563 16.8001C17.2563 17.2972 16.8468 17.7001 16.3416 17.7001C14.0732 17.7001 12.1094 16.4172 11.1586 14.5484V23.9347C16.1356 23.3697 20 19.2089 20 14.16ZM9.32925 9.64204C9.32925 8.26713 8.37829 7.06865 7.02274 6.73519C5.7368 6.41885 4.572 7.56501 4.89348 8.83038C5.23237 10.1642 6.45033 11.1 7.8476 11.1H9.32925V9.64204ZM11.1586 11.1V9.64204C11.1586 8.26713 12.1095 7.06865 13.4651 6.73519C14.751 6.41885 15.9158 7.56501 15.5943 8.83038C15.2554 10.1642 14.0375 11.1 12.6402 11.1H11.1586Z" fill="#497FFF"/>
<path d="M9.32925 14.5484C8.37844 16.4172 6.41458 17.7001 4.1462 17.7001C3.64105 17.7001 3.23154 17.2972 3.23154 16.8001C3.23154 16.303 3.64105 15.9001 4.1462 15.9001C6.02038 15.9001 7.59073 14.6201 8.00365 12.9H0V14.16C0 19.3727 4.11916 23.6387 9.32925 23.9782V14.5484Z" fill="#497FFF"/>
<path d="M4.04102 11.1C3.61299 10.5739 3.29318 9.95335 3.11879 9.26695C2.46237 6.68327 4.84073 4.34297 7.46642 4.98889C8.16398 5.16049 8.7946 5.47518 9.32925 5.89636V0H0V11.1H4.04102Z" fill="#497FFF"/>
</svg>

<svg xmlns="http://www.w3.org/2000/svg" width="119" height="24" fill="none"><path fill="#222" d="M26 5.391h2.796v8.624q0 .916.636 1.557a2.07 2.07 0 0 0 1.523.642h4.863V5.39h2.796v10.81q0 1.139-.822 1.95-.82.798-2 .798h-4.837q-1.365 0-2.49-.655a5.14 5.14 0 0 1-1.802-1.78 4.7 4.7 0 0 1-.663-2.46zM41.661 10.26q0-1.349.663-2.448a5.1 5.1 0 0 1 1.802-1.753 4.8 4.8 0 0 1 2.49-.668h7.659V18.95h-2.796V8.153h-4.862q-.888 0-1.524.628-.636.614-.636 1.505v3.742q0 .89.636 1.531.636.63 1.524.629h3.272v2.76h-3.272q-1.365 0-2.491-.654a5.14 5.14 0 0 1-1.802-1.78 4.7 4.7 0 0 1-.663-2.46zM57.455 8.192q0-1.165.861-1.976a2.88 2.88 0 0 1 2.067-.825h5.724q1.1 0 1.987.537.902.523 1.431 1.426.544.89.544 1.976v.38q0 1.073-.544 1.963a4.1 4.1 0 0 1-1.43 1.413 3.84 3.84 0 0 1-1.988.524h-4.266v-2.748h4.292q.478 0 .809-.34.345-.341.344-.825V9.33q0-.496-.344-.837-.331-.34-.808-.34H60.25v6.961q0 .445.304.76.304.314.742.314h7.804v2.76h-7.804q-1.06 0-1.934-.51a4 4 0 0 1-1.391-1.387 3.7 3.7 0 0 1-.517-1.923zM73.05 17.378q0-.706.503-1.204a1.67 1.67 0 0 1 1.22-.497q.728 0 1.218.497.504.485.504 1.204 0 .72-.504 1.217-.49.485-1.219.485a1.67 1.67 0 0 1-1.219-.498 1.63 1.63 0 0 1-.503-1.204M79.476 10.26q0-1.349.662-2.448A5.1 5.1 0 0 1 81.94 6.06a4.8 4.8 0 0 1 2.491-.668h4.863q1.154 0 1.974.812.822.81.822 1.95v10.953q0 1.347-.676 2.46a4.93 4.93 0 0 1-1.789 1.767 4.8 4.8 0 0 1-2.49.667h-6.771v-2.761h6.73q.915 0 1.55-.628.65-.615.65-1.492V8.153h-4.863q-.887 0-1.523.628-.636.614-.636 1.505v3.755q0 .877.636 1.518.636.63 1.523.629h3.273v2.76h-3.273a4.87 4.87 0 0 1-2.49-.654 5.2 5.2 0 0 1-1.803-1.766 4.7 4.7 0 0 1-.662-2.46zM94.952 1.701q0-.705.503-1.204A1.67 1.67 0 0 1 96.675 0q.715 0 1.218.497.504.498.504 1.204 0 .707-.504 1.204a1.67 1.67 0 0 1-1.219.497q-.715 0-1.219-.497a1.63 1.63 0 0 1-.503-1.204m.318 3.69h2.809V18.95h-2.81zM101.259 4.227q0-1.074.53-1.95A4.1 4.1 0 0 1 103.22.864a3.9 3.9 0 0 1 1.987-.524h3.061v2.748h-3.061q-.477 0-.821.34a1.08 1.08 0 0 0-.332.799V5.39h4.267V8.14h-4.267v10.809h-2.795zM110.189 5.391h1.789V.341h2.795v5.05H119v2.762h-4.227V15.1q0 .445.345.772.357.315.848.315H119v2.76h-3.074a3.96 3.96 0 0 1-1.987-.51 4.16 4.16 0 0 1-1.431-1.387 3.67 3.67 0 0 1-.53-1.936V8.153h-1.789z"/><path fill="#497FFF" d="M7.023 6.735c1.355.334 2.306 1.532 2.306 2.907V11.1H7.848c-1.398 0-2.616-.936-2.955-2.27-.321-1.265.844-2.411 2.13-2.095M11.159 9.642V11.1h1.481c1.397 0 2.615-.936 2.954-2.27.322-1.265-.843-2.411-2.129-2.095-1.355.334-2.306 1.532-2.306 2.907"/><path fill="#497FFF" fill-rule="evenodd" d="M11.159 23.935v-9.387a5.8 5.8 0 0 0 5.183 3.152.907.907 0 0 0 .914-.9c0-.497-.41-.9-.914-.9-1.875 0-3.445-1.28-3.858-3H20v1.26c0 5.049-3.864 9.21-8.841 9.775" clip-rule="evenodd"/><path fill="#497FFF" d="M11.159 0v5.896a4.9 4.9 0 0 1 1.862-.907c2.626-.646 5.004 1.694 4.348 4.278a4.76 4.76 0 0 1-.922 1.833H20V0z"/><path fill="#497FFF" fill-rule="evenodd" d="M20 14.16V12.9h-7.516c.413 1.72 1.983 3 3.858 3 .505 0 .914.403.914.9s-.41.9-.914.9a5.8 5.8 0 0 1-5.183-3.152v9.387C16.136 23.37 20 19.209 20 14.16M9.33 9.642c0-1.375-.952-2.573-2.307-2.907-1.286-.316-2.451.83-2.13 2.095.34 1.334 1.557 2.27 2.955 2.27h1.481zm1.829 1.458V9.642c0-1.375.95-2.573 2.306-2.907 1.286-.316 2.45.83 2.13 2.095-.34 1.334-1.558 2.27-2.955 2.27z" clip-rule="evenodd"/><path fill="#497FFF" d="M9.33 14.548A5.8 5.8 0 0 1 4.145 17.7a.907.907 0 0 1-.914-.9c0-.497.409-.9.914-.9 1.874 0 3.445-1.28 3.858-3H0v1.26c0 5.213 4.12 9.479 9.33 9.818zM4.041 11.1a4.76 4.76 0 0 1-.922-1.833C2.462 6.683 4.84 4.343 7.466 4.989a4.9 4.9 0 0 1 1.863.907V0H0v11.1z"/></svg>
